X:79
T: GLAUBT MIRS DOCH
N: E1099
O: Europa, Mitteleuropa, Deutschland
R: Wunsch - Lied, Luegen - Maerchen
M: 3/4
L: 1/8
K: G
DD | G3GAA | B2G2
GB | d2B2cA | G4
DD | G3GAA | B2G2
GB | d2B2cA | G4
FG | A2A2B^c | d2A2
AA | g3AB^c | d^cdB
=cA | G3GAA | B2G2
GB | d3BcA | G4

@@@ Tune index: 4763
